plasma/desktoptheme/ROUNDED-COLOR/icons/akregator.svg

<svg xmlns="http://www.w3.org/2000/svg" id="svg8" width="32" height="32" version="1.1">
<defs id="rounded">
    <style type="text/css" id="current-color-scheme">
        .ColorScheme-Text {
        color:#eff0f1;
        }
        .ColorScheme-NegativeText {
        color:#da4453;
        }
        .ColorScheme-Highlight {
        color:#3daee9;
        }
        .ColorScheme-Background {
        color:#31363b;
      }
      .ColorScheme-ButtonBackground {
        color:#444c53;
      }
    </style>
</defs>
 <g id="22-22-akregator" transform="translate(32,-281.17999)">
  <rect id="rect950" style="opacity:0.001" width="22" height="22" x="0" y="291.18"/>
  <path id="path952" style="opacity:1;fill:currentColor" class="ColorScheme-Text" transform="translate(0,291.17917)" d="m 4.5,4 a 0.50005,0.50005 0 1 0 0,1 C 8.6617647,5 11.760968,6.0930056 13.833984,8.1660156 15.907,10.239036 17,13.33823 17,17.5 a 0.50005,0.50005 0 1 0 1,0 C 18,13.16176 16.843,9.7609744 14.541016,7.4589844 12.239032,5.1570044 8.8382353,4 4.5,4 Z m 1,3 a 0.50005,0.50005 0 1 0 0,1 c 2.6439394,0 4.750193,0.8322256 6.208984,2.291016 C 13.167775,11.749806 14,13.85606 14,16.5 a 0.50005,0.50005 0 1 0 1,0 C 15,13.64394 14.082225,11.250194 12.416016,9.5839844 10.749807,7.9177744 8.3560606,7 5.5,7 Z m 1,3 a 0.50005,0.50005 0 1 0 0,1 c 1.0833333,0 2.2250518,0.557086 3.0839844,1.416016 C 10.442917,13.274956 11,14.41666 11,15.5 a 0.50005,0.50005 0 1 0 1,0 C 12,14.08333 11.307083,12.725054 10.291016,11.708984 9.2749478,10.692914 7.9166667,10 6.5,10 Z M 6,13 a 3,3 0 0 0 -3,3 3,3 0 0 0 3,3 3,3 0 0 0 3,-3 3,3 0 0 0 -3,-3 z"/>
 </g>
 <g id="akregator">
  <rect id="rect818" style="opacity:0.001" width="32" height="32" x="0" y="0"/>
  <path id="path820" style="opacity:1;fill:currentColor" class="ColorScheme-Text" d="M 6.5 5.0996094 A 0.50005 0.50005 0 1 0 6.5 6.0996094 C 15.131905 6.0996094 19.930095 9.1154977 22.652344 13.023438 C 25.374593 16.931376 26 21.805556 26 25.5 A 0.50005 0.50005 0 1 0 27 25.5 C 27 21.694444 26.375407 16.618233 23.472656 12.451172 C 20.569905 8.2841111 15.368095 5.0996094 6.5 5.0996094 z M 8.5 9 A 0.50005 0.50005 0 1 0 8.5 10 C 16.705878 10 22 17.282057 22 23.5 A 0.50005 0.50005 0 1 0 23 23.5 C 23 16.717943 17.294122 9 8.5 9 z M 10.5 14 A 0.50005 0.50005 0 1 0 10.5 15 C 11.736058 15 13.402238 15.570145 14.714844 16.673828 C 16.027449 17.777512 17 19.377565 17 21.5 A 0.50005 0.50005 0 1 0 18 21.5 C 18 19.067754 16.855088 17.167802 15.359375 15.910156 C 13.863662 14.65251 12.030668 14 10.5 14 z M 9.5 18 A 4.4999997 4.4999997 0 0 0 5 22.5 A 4.4999997 4.4999997 0 0 0 9.5 27 A 4.4999997 4.4999997 0 0 0 14 22.5 A 4.4999997 4.4999997 0 0 0 9.5 18 z"/>
 </g>
</svg>

<svg xmlns="http://www.w3.org/2000/svg" id="svg8" width="22" height="22" version="1.1">
<defs id="rounded">
    <style type="text/css" id="current-color-scheme">
        .ColorScheme-Text {
        color:#eff0f1;
        }
        .ColorScheme-NegativeText {
        color:#da4453;
        }
        .ColorScheme-Highlight {
        color:#3daee9;
        }
        .ColorScheme-Background {
        color:#31363b;
      }
      .ColorScheme-ButtonBackground {
        color:#444c53;
      }
    </style>
</defs>
 <g id="layer1" transform="translate(0,-291.17917)">
  <g id="akregator" transform="translate(0,1.2988281e-6)">
   <rect id="rect950" style="opacity:0.001" width="22" height="22" x="0" y="291.18"/>
   <path id="path952" style="opacity:1;fill:currentColor" class="ColorScheme-Text" transform="translate(0,291.17917)" d="M 4.5 4 A 0.50005 0.50005 0 1 0 4.5 5 C 8.6617647 5 11.760968 6.0930056 13.833984 8.1660156 C 15.907 10.239036 17 13.33823 17 17.5 A 0.50005 0.50005 0 1 0 18 17.5 C 18 13.16176 16.843 9.7609744 14.541016 7.4589844 C 12.239032 5.1570044 8.8382353 4 4.5 4 z M 5.5 7 A 0.50005 0.50005 0 1 0 5.5 8 C 8.1439394 8 10.250193 8.8322256 11.708984 10.291016 C 13.167775 11.749806 14 13.85606 14 16.5 A 0.50005 0.50005 0 1 0 15 16.5 C 15 13.64394 14.082225 11.250194 12.416016 9.5839844 C 10.749807 7.9177744 8.3560606 7 5.5 7 z M 6.5 10 A 0.50005 0.50005 0 1 0 6.5 11 C 7.5833333 11 8.7250518 11.557086 9.5839844 12.416016 C 10.442917 13.274956 11 14.41666 11 15.5 A 0.50005 0.50005 0 1 0 12 15.5 C 12 14.08333 11.307083 12.725054 10.291016 11.708984 C 9.2749478 10.692914 7.9166667 10 6.5 10 z M 6 13 A 3 3 0 0 0 3 16 A 3 3 0 0 0 6 19 A 3 3 0 0 0 9 16 A 3 3 0 0 0 6 13 z"/>
  </g>
 </g>
</svg>
